UnityPomodoro/Assets/AdrianMiasik/SVGs/icon-pause.svg

<svg clip-rule="evenodd" fill-rule="evenodd" stroke-linejoin="round" stroke-miterlimit="2" viewBox="0 0 22 29" xmlns="http://www.w3.org/2000/svg"><g fill="#fff"><path d="m313.845 483.881c0-.552-1.408-1-3.144-1-4.857 0-14.129 0-18.986 0-1.736 0-3.144.448-3.144 1v26.076c0 .552 1.408 1 3.144 1h18.986c1.736 0 3.144-.448 3.144-1 0-4.364 0-21.713 0-26.076z" transform="matrix(-.31800889467 0 0 1 112.808421839 -482.869)"/><path d="m313.845 483.881c0-.552-1.408-1-3.144-1-4.857 0-14.129 0-18.986 0-1.736 0-3.144.448-3.144 1v26.076c0 .552 1.408 1 3.144 1h18.986c1.736 0 3.144-.448 3.144-1 0-4.364 0-21.713 0-26.076z" transform="matrix(-.31800889467 0 0 1 100.448650184 -482.869)"/></g></svg>

<?xml version="1.0" encoding="UTF-8" standalone="no"?>
<!DOCTYPE svg PUBLIC "-//W3C//DTD SVG 1.1//EN" "http://www.w3.org/Graphics/SVG/1.1/DTD/svg11.dtd">
<svg width="100%" height="100%" viewBox="0 0 22 29" version="1.1" xmlns="http://www.w3.org/2000/svg" xmlns:xlink="http://www.w3.org/1999/xlink" xml:space="preserve" xmlns:serif="http://www.serif.com/" style="fill-rule:evenodd;clip-rule:evenodd;stroke-linejoin:round;stroke-miterlimit:2;">
    <g transform="matrix(1,0,0,1,-287,-518)">
        <g transform="matrix(1,0,0,1,83.8417,184.473)">
            <g id="Pause" transform="matrix(0.807037,-1.2326e-32,9.9475e-33,1,41.2941,-5.68434e-14)">
                <g id="Right" transform="matrix(-0.394045,0,0,1,340.347,-149.342)">
                    <path d="M313.845,483.881C313.845,483.329 312.437,482.881 310.701,482.881C305.844,482.881 296.572,482.881 291.715,482.881C289.979,482.881 288.571,483.329 288.571,483.881C288.571,488.244 288.571,505.593 288.571,509.957C288.571,510.509 289.979,510.957 291.715,510.957C296.572,510.957 305.844,510.957 310.701,510.957C312.437,510.957 313.845,510.509 313.845,509.957C313.845,505.593 313.845,488.244 313.845,483.881Z" style="fill:white;"/>
                </g>
                <g id="Left" transform="matrix(-0.394045,0,0,1,325.032,-149.342)">
                    <path d="M313.845,483.881C313.845,483.329 312.437,482.881 310.701,482.881C305.844,482.881 296.572,482.881 291.715,482.881C289.979,482.881 288.571,483.329 288.571,483.881C288.571,488.244 288.571,505.593 288.571,509.957C288.571,510.509 289.979,510.957 291.715,510.957C296.572,510.957 305.844,510.957 310.701,510.957C312.437,510.957 313.845,510.509 313.845,509.957C313.845,505.593 313.845,488.244 313.845,483.881Z" style="fill:white;"/>
                </g>
            </g>
        </g>
    </g>
</svg>
